X: 264
T:Holeywels Hornpipe. JaW.263
T:Holywells Hornpipe,aka. JaW.263
M:C|
Q:180
S:James Winder Ms, Lancashire, 1835-41
R:Hornpipe
O:England
A:Wyresdale,Lancashire
N:Deficient in the B music..
H:1/8
Z:vmp.Chris Partington, Aug 2004
K:G
d2(dg) edcB|d2(dg) edcB|DGBG DGBG|DGBG cBAG|!
d2(dg) edcB|d2(dg) edcB|gfga ecAF|G2GGG2:|!
|:d2de dBGB|c2e2e2AB|c2(cd) cBAG|cdef g2ga|!
fdeg fdeg|gfga gfgg|"sic"ecAF G2GG|G4:|]
